icons/hashtag.svg

<svg width="24" height="24" viewBox="0 0 24 24" fill="none" xmlns="http://www.w3.org/2000/svg">
<path fill-rule="evenodd" clip-rule="evenodd" d="M10.1104 2.00608C10.6593 2.06707 11.0549 2.56149 10.9939 3.1104L10.4506 7.99997H14.4383L15.0061 2.88953C15.0671 2.34063 15.5615 1.94509 16.1104 2.00608C16.6593 2.06707 17.0549 2.56149 16.9939 3.1104L16.4506 7.99997H20C20.5523 7.99997 21 8.44768 21 8.99997C21 9.55225 20.5523 9.99997 20 9.99997H16.2284L15.7839 14H20C20.5523 14 21 14.4477 21 15C21 15.5523 20.5523 16 20 16H15.5617L14.9939 21.1104C14.9329 21.6593 14.4385 22.0548 13.8896 21.9938C13.3407 21.9329 12.9451 21.4384 13.0061 20.8895L13.5494 16H9.56171L8.99388 21.1104C8.93289 21.6593 8.43847 22.0548 7.88957 21.9938C7.34066 21.9329 6.94513 21.4384 7.00612 20.8895L7.5494 16H4C3.44772 16 3 15.5523 3 15C3 14.4477 3.44772 14 4 14H7.77162L8.21607 9.99997H4C3.44772 9.99997 3 9.55225 3 8.99997C3 8.44768 3.44772 7.99997 4 7.99997H8.43829L9.00612 2.88953C9.06711 2.34063 9.56152 1.94509 10.1104 2.00608ZM10.2284 9.99997L9.78393 14H13.7716L14.2161 9.99997H10.2284Z" fill="black"/>
</svg>

<svg
  width="24"
  height="24"
  viewBox="0 0 24 24"
  xmlns="http://www.w3.org/2000/svg"
>
  <path
    fill-rule="evenodd"
    clip-rule="evenodd"
    d="M10.11 2.006a1 1 0 0 1 .884 1.104L10.45 8h3.987l.568-5.11a1 1 0 0 1 1.988.22L16.45 8H20a1 1 0 1 1 0 2h-3.772l-.444 4H20a1 1 0 1 1 0 2h-4.438l-.568 5.11a1 1 0 1 1-1.988-.22L13.55 16H9.562l-.568 5.11a1 1 0 1 1-1.988-.22L7.55 16H4a1 1 0 1 1 0-2h3.772l.444-4H4a1 1 0 0 1 0-2h4.438l.568-5.11a1 1 0 0 1 1.104-.884zM10.228 10l-.444 4h3.988l.444-4h-3.988z"
  />
</svg>
